X:12509
T:Over The Moor To Maggie
R:Reel
S:(James Kelly)
H:
N:
D:Solo Album
Z:Adrian Scahill
M:4/4
L:1/8
K:G
d2BG dGG2|dGBG ABcA|d2BG DGBG|cBAB c2Bc:||\
dgg2 dgec|dgg2 ABcA|dgg2 defd|cBAB c2Bc:||
